X:12
T: Had Awa Frae Me, Donald
N: HA012
O: Europa, Mitteleuropa, Deutschland
N: Formteile b und c sowie av und cv zum Schluss gleich
M: 4/4
L: 1/16
K: A
A2 | A4F4A8 | E4C4E8
A4F4A4B4 | c8B4A2z
A | A4F4A6F2 | E4C4E6
E2 | A4F4A4B4 | c8B4A2
A2 | B4c4e4f4 | e4c4B4
A4 | B4c4e4f4 | c8B4A2z
A | B4c4e4f4 | E4c4e6
A2 | A4F4A4B4 | c8B4A2

